image/values/icon-4.svg

<svg width="48" height="48" viewBox="0 0 48 48" fill="none" xmlns="http://www.w3.org/2000/svg">
<path d="M32.9809 45.5H15.0008C11.5608 45.5 8.98085 44.58 7.38085 42.76C5.78085 40.94 5.16083 38.3 5.58083 34.88L7.38085 19.88C7.90085 15.46 9.02085 11.5 16.8209 11.5H31.2208C39.0008 11.5 40.1208 15.46 40.6609 19.88L42.4608 34.88C42.8608 38.3 42.2608 40.96 40.6609 42.76C39.0009 44.58 36.4409 45.5 32.9809 45.5ZM16.8008 14.5C11.0408 14.5 10.7608 16.78 10.3408 20.22L8.54085 35.22C8.24085 37.76 8.60084 39.62 9.62084 40.76C10.6408 41.9 12.4408 42.48 15.0008 42.48H32.9809C35.5409 42.48 37.3408 41.9 38.3608 40.76C39.3808 39.62 39.7408 37.76 39.4408 35.22L37.6409 20.22C37.2209 16.76 36.9608 14.5 31.1808 14.5H16.8008Z" fill="#2E2E2E"/>
<path d="M32 17.5C31.18 17.5 30.5 16.82 30.5 16V9C30.5 6.84 29.16 5.5 27 5.5H21C18.84 5.5 17.5 6.84 17.5 9V16C17.5 16.82 16.82 17.5 16 17.5C15.18 17.5 14.5 16.82 14.5 16V9C14.5 5.18 17.18 2.5 21 2.5H27C30.82 2.5 33.5 5.18 33.5 9V16C33.5 16.82 32.82 17.5 32 17.5Z" fill="#C63031"/>
<path d="M40.82 35.5605H16C15.18 35.5605 14.5 34.8805 14.5 34.0605C14.5 33.2405 15.18 32.5605 16 32.5605H40.82C41.64 32.5605 42.32 33.2405 42.32 34.0605C42.32 34.8805 41.64 35.5605 40.82 35.5605Z" fill="#2E2E2E"/>
</svg>

<svg xmlns="http://www.w3.org/2000/svg" width="48" height="48" fill="none"><path fill="#2E2E2E" d="M32.98 45.5H15c-3.44 0-6.02-.92-7.62-2.74-1.6-1.82-2.22-4.46-1.8-7.88l1.8-15c.52-4.42 1.64-8.38 9.44-8.38h14.4c7.78 0 8.9 3.96 9.44 8.38l1.8 15c.4 3.42-.2 6.08-1.8 7.88-1.66 1.82-4.22 2.74-7.68 2.74Zm-16.18-31c-5.76 0-6.04 2.28-6.46 5.72l-1.8 15c-.3 2.54.06 4.4 1.08 5.54 1.02 1.14 2.82 1.72 5.38 1.72h17.98c2.56 0 4.36-.58 5.38-1.72 1.02-1.14 1.38-3 1.08-5.54l-1.8-15c-.42-3.46-.68-5.72-6.46-5.72H16.8Z"/><path fill="#C63031" d="M32 17.5c-.82 0-1.5-.68-1.5-1.5V9c0-2.16-1.34-3.5-3.5-3.5h-6c-2.16 0-3.5 1.34-3.5 3.5v7c0 .82-.68 1.5-1.5 1.5s-1.5-.68-1.5-1.5V9c0-3.82 2.68-6.5 6.5-6.5h6c3.82 0 6.5 2.68 6.5 6.5v7c0 .82-.68 1.5-1.5 1.5Z"/><path fill="#2E2E2E" d="M40.82 35.56H16c-.82 0-1.5-.68-1.5-1.5s.68-1.5 1.5-1.5h24.82c.82 0 1.5.68 1.5 1.5s-.68 1.5-1.5 1.5Z"/></svg>
